X: 28724
T: My Fair Young Love
R: waltz
M: 3/4
K: Eminor
G/A/|BAB GED/E/|BdA Bde/e/|ede dBB/d/|eBA GED/E/|GAG edg/f/|
eEF EDc/d/|BAG edd/B/|AGA BAG|E2D E3|E3 z2 E/F/|
GFE DB,G/B/|dBA Bde/f/|gfe dBB/d/|eBA GED/E/|GAG edg/f/|
eEF EDc/d/|BAB edd/B/|AGA BAG|E2D E3|E3 z3||

